X:495
T: Schlecht gefreit (200), S. 436
N: T0383
O: Luxemburg
S: Singendes Volk, Esch-Alzette, 1937 posth.]
N: Straen, fff Witry, 10.1.1933
R: Hochzeits-, Ehestandslied]
M: 2/4
L: 1/16
K: F
F2 | c2c2c2c2 | c2c2A4 |
c2ccc2BB | A2G2F2
F2 | c2c2c2c2 | c2c2A4 |
c2ccc2BB | A2G2F2
d2 | d2c2c2c2 | B2d2d2d2 |
c2A2A2A2 | A2A2c2c2 |
B2A2G4 | G2G2G4 |
c2c2c2c2 | ccF4

@@@ Tune index: 8549
